X:311
T: Delven House
R: reel
M: C
L: 1/8
K: D
f |\
d2(Af) d2(GB) | Eeed cABc | (df).e.f (df).B.d | ABAF (Ad)d :|
(f/g/) |\
(af).d.f (df).a.f | (bge)g (egb).g | afdf dfaf | Bgfe fdd ||
(f/g/) |\
afdf (d/e/f/g/) (af) | bgeg (eg/a/b).g | faef deBd | ABAF (Ad)d |]

